X: 2027
T: Yüzün Güllerden İnce
C: Sadettin Kaynak
O: Turkey
F: http://compmusic.upf.edu/node/140
N: hicazkar--sarki--duyek--yuzun_gullerden--sadettin_kaynak
N: makam= hicazkar
N: form= sarki
N: usul= duyek = 8/4
M: 8/4
L: 1/16
K: C _1/4B _7/8e _7/8A ^f
Q: 1/4=192
%%MIDI tuningsystem comma53
g3/2f/ g2 z4 g3/2f/ g2 z4  | g3/2f/ g=a _b4 ac' ba gf g2  | \
w:  ARANAĞME  |   | 
=f3/2=e/ f2 z4 f3/2e/ f2 z4  | 
w:   | 
=f3/2=e/ fg a4 fa gf _7/8ed c2  | \
w:   | 
c3/2B/ c2 z4 c3/2B/ c2 z2 g2  | 
w:   | 
=f2 e2 d2 c2 Bc BA G4  | AG AB c{d}c BA G4 FG AF  | 
w:   |   | 
G8 z8  | f2 g2 z4 g4 fe dc  | B3c BA AG G4 z4  | \
w:   |  Yü zün  gül ler  |  den  *  in *  *  *  ce   | 
f2 g2 z4 c'4 _b=a g2  | 
w:  se sin  bül bül  | 
=a2 _ba ag gf g4 z4  | z4 =f2 f2 f4 _1/4ed e2  | \
w:  den  *  *  tat *  *  *  lı    |  Gü lü şün   | 
z2 a2 g2 f2 e3d c4  | 
w:  gon *  ca  gon *  ca   | 
z2 d2 e2 g2 f2 e2 d2 c2  | B3c BA AG G4 z4  | \
w:  neş *  en  al *  tın   |  ka *  nat *  *  *  lı    | 
z2 d2 d2 d2 d4 d2 _ed  | 
w:  Gü nay dın  sev gi li  | 
c4 z2 _e2 d3c _B4  | z2 c2 c2 c2 c2 =A2 _B2 c2  | \
w:  ye  gü nay *  dın   |  gö nül  ay dın  *  gü nay  | 
d4 z2 =A2 _B3A G4  | z2 d2 d2 d2 d4 d2 _ed  | 
w:  dın  SAZ  |  Gü nay dın  sev gi li  | 
c4 z2 _e2 d3c _B4  | z2 c2 c2 c2 c2 =A2 _B2 c2  | \
w:  ye  gü nay *  dın   |  gö nül  ay dın  *  gü nay  | 
d4 z2 d2 e3f g4  | z2 d2 e2 g2 f2 e2 d2 c2  | 
w:  dın  SAZ  |  Da lım da  bi *  te vi  | 
B4 z2 e2 d2 c2 B4  | z2 G2 A2 c2 B2 A2 G2 F2  | \
w:  ye  bi te vi ye   |  şa kı yan  sen  *  o lay  | 
G4 z2 D2 E2 F2 G4  | z2 d2 e2 g2 f2 e2 d2 c2  | 
w:  dın  SAZ  |  Da lım da  bi *  te vi  | 
B4 z2 e2 d2 c2 B4  | z2 G2 A2 c2 B2 A2 G2 F2  | \
w:  ye  bi te vi ye   |  şa kı yan  sen  *  o lay  | 
G4 z2 D2 E2 F2 G4  | g3/2f/ g2 z4 g3/2f/ g2 z4  | 
w:  dın  SAZ  |  ARANAĞME  | 
g3/2f/ g=a _b4 ac' ba gf g2  | =f3/2=e/ f2 z4 f3/2e/ f2 z4  | \
w:   |   | 
=f3/2=e/ fg a4 fa gf _7/8ed c2  | 
w:   | 
c3/2B/ c2 z4 c3/2B/ c2 z2 g2  | =f2 e2 d2 c2 Bc BA G4  | \
w:   |   | 
AG AB c{d}c BA G4 FG AF  | 
w:   | 
G8 z8  | =f2 g6 g4 a3/2g/ f2  | z2 _b4 ag g4 z4  | \
w:   |  A çar ken  şen   |  duy gu *  lar   | 
g2 _a6 g4 =f4  | _e2 d2 =f2 ed d4 z4  | 
w:  i çi min  bah  |  çe *  sin *  *  de  | 
d2 _e2 d2 c2 g8  | z2 =fe d2 c2 _B4 B2 _AG  | \
w:  Gü lüm *  sü yor   |  ar *  zu *  lar   | 
z2 G2 _A2 _B2 c8  | G2 _A_B {c}BA G=F G4 z4  | 
w:  şar kı mın  nağ  |  me *  *  *  sin *  *  *  de   | 
z2 d2 d2 d2 d4 d2 _ed  | c4 z2 _e2 d3c _B4  | \
w:  Gü nay dın  sev gi li  |  ye  gü nay *  dın   | 
z2 c2 c2 c2 c2 =A2 _B2 c2  | 
w:  gö nül  ay dın  *  gü nay  | 
d4 z2 =A2 _B3A G4  | z2 d2 d2 d2 d4 d2 _ed  | \
w:  dın  SAZ  |  Gü nay dın  sev gi li  | 
c4 z2 _e2 d3c _B4  | z2 c2 c2 c2 c2 =A2 _B2 c2  | 
w:  ye  gü nay *  dın   |  gö nül  ay dın  *  gü nay  | 
d4 z2 d2 e3f g4  | z2 d2 e2 g2 f2 e2 d2 c2  | \
w:  dın  SAZ  |  Da lım da  bi *  te vi  | 
B4 z2 e2 d2 c2 B4  | z2 G2 A2 c2 B2 A2 G2 F2  | 
w:  ye  bi te vi ye   |  şa kı yan  sen  *  o lay  | 
G4 z2 D2 E2 F2 G4  | z2 d2 e2 g2 f2 e2 d2 c2  | \
w:  dın  SAZ  |  Da lım da  bi *  te vi  | 
B4 z2 e2 d2 c2 B4  | z2 G2 A2 c2 B2 A2 G2 F2  | 
w:  ye  bi te vi ye   |  şa kı yan  sen  *  o lay  | 
G4 z2 D2 E2 F2 G4  | g3/2f/ g2 z4 g3/2f/ g2 z4  | \
w:  dın  SAZ  |  ARANAĞME  | 
g3/2f/ g=a _b4 ac' ba gf g2  | 
w:   | 
=f3/2=e/ f2 z4 f3/2e/ f2 z4  | =f3/2=e/ fg a4 fa gf _7/8ed c2  | \
w:   |   | 
c3/2B/ c2 z4 c3/2B/ c2 z2 g2  | 
w:   | 
=f2 e2 d2 c2 Bc BA G4  | AG AB c{d}c BA G4 FG AF  | 
w:   |   | 
G8 z8  | |


